!! 00000] TT[00
!! NN
!!!OTL: Song fu can jun
!!!ARE: Asia, China,ÿJiangsu, Gaoyou(Nord)
!! Ethnic Group: Han
!! III, 461, 2)
!!!SCT: C0324
!!!YEM: Copyright 1995, estate of Helmut Schaffrath.
**kern
*ICvox
*Ivox
*M2/4
*k[b-]
*F:
{16.cc
32cc
16bn
16cc
16ff
16dd
16dd
16cc
=1
16bn
16cc
16ff
16dd
4cc}
=2
{16.cc
32cc
16bn
16cc
16ff
16dd
16dd
16cc
=3
16bn
16cc
16ff
16dd
16dd
16cc
16cc
16a
=4
16cc
16a
16g
16f
4d}
=5
{16.d
32d
16d
16d
8f
8g
=6
8g
16cc
16a
16cc
16g
16g
16f
=7
16.g
32f
16d
16c
4c}
=8
{16.d
32c
16d
16f
8.g
16a
=9
16.cc
32ff
16dd
16cc
4g}
=10
{16.d
32d
16d
16d
8f
8g
=11
8g
16cc
16a
16cc
8g
16f
=12
16.g
32f
16d
16c
4c}
==
!!!AGN: Xiaodiao, Shidiao, Jianjianhua diao. Geming lishi minge
!! typische Tonart fuer den Norden dieser Provinz. Die Melodie
!!    existiert auch in der Jiangsu-Oper "Huai Ju"
!!    Notiert ist die Melodie fuer die ersten beiden Strophen. Die letzte
!!    Phrase wird in der dritten ersetzt durch:
!!    -6_.-6-6_-6_1__2__  -6_.-6-6_-6_1__2_2_
!!    2__5_3_5_2__3_  2__5_3_5_2__3_  2_1_-6__5___  ^____ //
!!    Vereinzelt Verzierungen. Vorspiel weggelassen.
!!!ONB: ESAC (Essen Associative Code) Database: CHINA
!!!AMT: simple duple
!!!AIN: vox
!!!EED: Helmut Schaffrath
!!!EEV: 1.0
*-
